X: 1092
T: Amelia
R: waltz
M: 3/4
K: Dmajor
|:G/F/E|D3 E D2|D2 F2- FE|D2 F2 B2|A4 FA|
B2 G3 B|A/B/A F2- FE|D2 B2- B^A|B4 A2|
D3 E D2|D2 F2 E/F/E|D2 F2- FB|A4 F/G/A|
B3 c d2|d3 e f2|e2 c2 A2|1 A3 G:|2 A4||
|:ag|f2 af af|a2 f/g/f d2|e2 ed cB|A3 A fe|
d3 Bd B/c/d|f3 e d2|c2 cB AG|F4 F2|
G2 BG BG|F2 A2 d2|e2 c2 A2|d3 e f2|
g3 f e2|af- f2 d2|d2 e2- ec|1 d4:|2 d3 G||

